src/images/crypto-icon-svg/xcp.svg

<svg xmlns="http://www.w3.org/2000/svg" width="32" height="32" viewBox="0 0 32 32">
  <g fill="none" fill-rule="evenodd">
    <circle cx="16" cy="16" r="16" fill="#ED1650"/>
    <path fill="#FFF" d="M23.4803823,9.99997951 L19.435736,9.99997951 C19.2704677,9.99997951 19.1119738,10.0669746 18.9952665,10.1861454 L11.6212421,17.7145941 C11.5045348,17.8337649 11.3460409,17.90076 11.1807726,17.90076 L9.82877866,17.90076 C9.66377866,17.90076 9.50548598,17.834038 9.38884573,17.7152088 L8.43251646,16.7414917 C8.31580915,16.6227307 8.25027866,16.4616283 8.25027866,16.2936283 L8.25027866,14.9165746 C8.25027866,14.7485746 8.31580915,14.5874722 8.43251646,14.4686429 L9.38884573,13.4949259 C9.50548598,13.3761649 9.66377866,13.3093746 9.82877866,13.3093746 L11.1812421,13.3093746 C11.3462421,13.3093746 11.5044677,13.3761649 11.621175,13.4949259 L12.2084006,14.0928283 C12.4514067,14.3402527 12.8453274,14.3402527 13.0882665,14.0928283 L14.5067299,12.6486429 C14.749736,12.4012185 14.749736,12.0001356 14.5067299,11.7527795 L12.9674677,10.1855307 C12.8507604,10.0667698 12.6925348,9.99997951 12.5275348,9.99997951 L8.48248598,9.99997951 C8.31748598,9.99997951 8.15919329,10.0667698 8.04248598,10.1855307 L5.18221768,13.0978722 C5.06557744,13.2166332 4.99997988,13.3777356 4.99997988,13.5458039 L4.99997988,17.664399 C4.99997988,17.832399 5.06557744,17.9935015 5.18221768,18.1123307 L8.04248598,21.0246722 C8.15919329,21.1434332 8.31748598,21.2102234 8.48248598,21.2102234 L12.5270652,21.2102234 C12.6923335,21.2102234 12.8508274,21.1432283 12.9676018,21.0240576 L20.3415591,13.4955405 C20.4582665,13.3763698 20.6168274,13.3093746 20.7820957,13.3093746 L22.1340896,13.3093746 C22.2990896,13.3093746 22.4573152,13.3761649 22.5739555,13.4949259 L23.5302848,14.4685746 C23.6469921,14.5873356 23.7125896,14.7485063 23.7125896,14.9165063 L23.7125896,16.2936283 C23.7125896,16.4616283 23.6469921,16.6227307 23.5302848,16.7414917 L22.5739555,17.7152088 C22.4573152,17.834038 22.2990896,17.90076 22.1340896,17.90076 L20.7816262,17.90076 C20.6166262,17.90076 20.4583335,17.834038 20.3416933,17.7152088 L19.7495043,17.112321 C19.5084433,16.8668771 19.1183457,16.8646917 18.8746018,17.1073356 L17.1252665,18.848799 C17.0055409,18.9679698 16.9380652,19.1312576 16.9380652,19.3017161 L16.9380652,23.3428673 C16.9380652,23.6927307 17.2166201,23.9764185 17.560236,23.9764185 L19.6009372,23.9764185 C19.944553,23.9764185 20.223175,23.6927307 20.223175,23.3428673 L20.223175,21.843638 C20.223175,21.4937746 20.5016628,21.2102234 20.8452787,21.2102234 L23.4803823,21.2102234 C23.6453823,21.2102234 23.8036079,21.1434332 23.9203152,21.0246722 L26.7805835,18.1123307 C26.8972909,17.9935015 26.9628213,17.832399 26.9628213,17.664399 L26.9628213,13.5458039 C26.9628213,13.3777356 26.8972909,13.2166332 26.7805835,13.0978722 L23.9203152,10.1855307 C23.8036079,10.0667698 23.6453823,9.99997951 23.4803823,9.99997951"/>
  </g>
</svg>

<svg xmlns="http://www.w3.org/2000/svg" width="32" height="32"><g fill="none" fill-rule="evenodd"><circle cx="16" cy="16" r="16" fill="#ED1650"/><path fill="#FFF" d="M23.48 10h-4.044a.616.616 0 0 0-.44.186l-7.375 7.529a.616.616 0 0 1-.44.186H9.829a.616.616 0 0 1-.44-.186l-.956-.974a.639.639 0 0 1-.183-.447v-1.377a.64.64 0 0 1 .183-.448l.956-.974a.617.617 0 0 1 .44-.186h1.352c.165 0 .323.067.44.186l.587.598a.614.614 0 0 0 .88 0l1.419-1.444a.642.642 0 0 0 0-.896l-1.54-1.567a.617.617 0 0 0-.44-.186H8.483a.617.617 0 0 0-.44.186l-2.86 2.912a.64.64 0 0 0-.182.448v4.118c0 .168.066.33.182.448l2.86 2.913a.617.617 0 0 0 .44.185h4.045a.617.617 0 0 0 .44-.186l7.375-7.528a.617.617 0 0 1 .44-.187h1.352c.165 0 .323.067.44.186l.956.974a.64.64 0 0 1 .183.448v1.377a.64.64 0 0 1-.183.447l-.956.974a.616.616 0 0 1-.44.186h-1.352a.616.616 0 0 1-.44-.186l-.592-.603a.614.614 0 0 0-.875-.005l-1.75 1.742a.64.64 0 0 0-.187.453v4.04c0 .35.279.634.622.634h2.04a.628.628 0 0 0 .623-.633v-1.5c0-.35.279-.633.622-.633h2.635a.617.617 0 0 0 .44-.185l2.86-2.913a.64.64 0 0 0 .183-.448v-4.118a.64.64 0 0 0-.182-.448l-2.86-2.912a.617.617 0 0 0-.44-.186"/></g></svg>
